!!!COM:	Bach, Johann Sebastian
!!!CDT:	1685/02/21/-1750/07/28/
!!!OTL@@DE:	Wer in dem Schutz des H&ouml;chsten ist
!!!SCT:	BWV 339
!!!PC#:	144
!!!AGN:	chorale
**kern	**kern	**kern	**kern
*ICvox	*ICvox	*ICvox	*ICvox
*Ibass	*Itenor	*Ialto	*Isoprn
*I"Bass	*I"Tenor	*I"Alto	*I"Soprano
*>[A,A,B]	*>[A,A,B]	*>[A,A,B]	*>[A,A,B]
*>norep[A,B]	*>norep[A,B]	*>norep[A,B]	*>norep[A,B]
*>A	*>A	*>A	*>A
*clefF4	*clefGv2	*clefG2	*clefG2
*k[f#c#g#]	*k[f#c#g#]	*k[f#c#g#]	*k[f#c#g#]
*A:	*A:	*A:	*A:
*M4/4	*M4/4	*M4/4	*M4/4
*met(c)	*met(c)	*met(c)	*met(c)
*MM100	*MM100	*MM100	*MM100
=1-	=1-	=1-	=1-
4r	4ry	4ry	4r
4AA	4c#	4e	4a
4BB	4B	4d	4g#
4C#	[4A	4e	4a
=2	=2	=2	=2
4D#	4A]	4f#	4b
4E#	4G#	4c#	4b
8F#L	4A	4c#	4a
8EJ	.	.	.
4D	8G#L	4f#	4b
.	8F#J	.	.
=3	=3	=3	=3
2C#;	2G#;	2e#;	2cc#;
4r	4ry	4ry	4r
8F#L	4A	4f#	4dd
8G#J	.	.	.
=4	=4	=4	=4
4.A	4A	8enXL	4cc#
.	.	8c#	.
.	4B	8d#	4b
8G#	.	8e#J	.
8F#L	4c#	4f#	4a
8EnX	.	.	.
8DnX	8BL	4e	8g#L
8C#J	8AJ	.	8aJ
=5	=5	=5	=5
8DL	4A	4f#	2b
8BBJ	.	.	.
4E	4G#	8eL	.
.	.	8dJ	.
2AA;	2E;	2c#;	2a;
=6:|!	=6:|!	=6:|!	=6:|!
*>B	*>B	*>B	*>B
4r	4ry	4ry	4r
2A	4c#	4e	4a
.	8dL	4f#	8bL
.	8c#J	.	8cc#J
8G#L	8BL	8e#L	4dd
8F#J	8AJ	8f#J	.
=7	=7	=7	=7
4E#	4G#	4g#	8cc#L
.	.	.	8bJ
8F#L	8AL	4c#	4a
8EJ	8G#J	.	.
8DL	4F#	4.f#	8bL
8BBJ	.	.	8aJ
4C#	8c#L	.	4g#
.	8BJ	8e#	.
=8	=8	=8	=8
2FF#;	2A;	2c#;	2f#;
4r	4ry	4ry	4r
4BB#	4G#	4d#	4g#
=9	=9	=9	=9
8C#L	4G#	8e	4e
8BBnXJ	.	4dnX	.
[4AA	4A	.	4e
.	.	8c#	.
8AAL]	8F#L	8d#L	4b
8GG#J	8G#J	8eJ	.
4AA#	8GL	4e	4cc#
.	[8F#J	.	.
=10	=10	=10	=10
4.BB	8F#L]	8dnXL	8ddnXL
.	8DJ	8f#J	8cc#J
.	4d	[4g	4b
8C#	.	.	.
2D;	2d;	4g]	2a;
.	.	4f#;	.
=11	=11	=11	=11
4r	4ry	4ry	4r
4GG#	4e	[4b	4ee
8AAL	4e	8bL]	4cc#
8C#J	.	16aL	.
.	.	16g#JJ	.
8F#L	8c#L	[4a	4cc#
8EJ	16dL	.	.
.	16eJJ	.	.
=12	=12	=12	=12
4.D	8f#L	8aL]	4b
.	8eJ	16g#L	.
.	.	16f#JJ	.
.	4A	4e	4a
8C#	.	.	.
8BBL	8dL	4e	4g#
8E	8BJ	.	.
8C#	[4A	4e	4a
8AAJ	.	.	.
=13	=13	=13	=13
4E	4A]	4.e	2b
4EE	4G#	.	.
.	.	8d	.
2AA;	2E;	2c#;	2a;
==	==	==	==
*-	*-	*-	*-
!!!hum2abc: -Q ''
!!!title: @{PC#}. @{OTL@@DE}
!!!YOR1: 371 vierstimmige Choralges&auml;nge von Johann Sebastian Bach, 
!!!YOR2: 4th ed. by Alfred D&ouml;rffel (Leipzig: Breitkopf und H&auml;rtel, 
!!!YOR2: c.1875). 178 pp. Plate "V.A.10".  reprint: J.S. Bach, 371 Four-Part 
!!!YOR4: Chorales (New York: Associated Music Publishers, Inc., c.1940).
!!!SMS: B&H, 4th ed, Alfred D&ouml;rffel, c.1875, plate V.A.10
!!!EED:  Craig Stuart Sapp
!!!EEV:  2009/05/22
